src/assets/images/important-info.svg

<?xml version="1.0" encoding="UTF-8"?>
<svg width="16px" height="16px" viewBox="0 0 16 16" version="1.1" xmlns="http://www.w3.org/2000/svg" xmlns:xlink="http://www.w3.org/1999/xlink">
    <title>2FECDE4C-7395-41F4-8912-A64C6D2D8E78</title>
    <g id="aimedis" stroke="none" stroke-width="1" fill="none" fill-rule="evenodd">
        <g id="UI---Doctor---Appointments-(New-Requests)" transform="translate(-826.000000, -148.000000)">
            <g id="Group-7-Copy-2" transform="translate(764.000000, 144.000000)">
                <g id="important-info" transform="translate(62.000000, 4.000000)">
                    <g id="Frame_-_24px">
                        <rect id="Rectangle" x="0" y="0" width="16" height="16"></rect>
                    </g>
                    <g id="Line_Icons" transform="translate(1.333333, 1.333333)" fill="#976901" fill-rule="nonzero">
                        <g id="Group">
                            <path d="M6.66666667,13.3333333 C2.99066667,13.3333333 0,10.3433333 0,6.66666667 C0,2.99133333 2.99066667,0 6.66666667,0 C10.3426667,0 13.3333333,2.99066667 13.3333333,6.66666667 C13.3333333,10.3433333 10.3426667,13.3333333 6.66666667,13.3333333 Z M6.66666667,1.33333333 C3.726,1.33333333 1.33333333,3.726 1.33333333,6.66666667 C1.33333333,9.60733333 3.726,12 6.66666667,12 C9.60733333,12 12,9.60733333 12,6.66666667 C12,3.726 9.60733333,1.33333333 6.66666667,1.33333333 Z" id="Shape"></path>
                            <path d="M7.33333333,8.66666667 L7.33333333,6 C7.33333333,5.632 7.03533333,5.33333333 6.66666667,5.33333333 L5.33333333,5.33333333 L5.33333333,6.66666667 L6,6.66666667 L6,8.66666667 L4.66666667,8.66666667 L4.66666667,10 L8.66666667,10 L8.66666667,8.66666667 L7.33333333,8.66666667 Z" id="Path"></path>
                            <circle id="Oval" cx="6.66666667" cy="4" r="1"></circle>
                        </g>
                    </g>
                </g>
            </g>
        </g>
    </g>
</svg>

<svg width="16" height="16" xmlns="http://www.w3.org/2000/svg"><g fill="none" fill-rule="evenodd"><path d="M0 0h16v16H0z"/><g transform="translate(1.333 1.333)" fill="#976901" fill-rule="nonzero"><path d="M6.667 13.333A6.674 6.674 0 0 1 0 6.667 6.675 6.675 0 0 1 6.667 0a6.674 6.674 0 0 1 6.666 6.667 6.674 6.674 0 0 1-6.666 6.666Zm0-12a5.34 5.34 0 0 0-5.334 5.334A5.34 5.34 0 0 0 6.667 12 5.34 5.34 0 0 0 12 6.667a5.34 5.34 0 0 0-5.333-5.334Z"/><path d="M7.333 8.667V6a.666.666 0 0 0-.666-.667H5.333v1.334H6v2H4.667V10h4V8.667H7.333Z"/><circle cx="6.667" cy="4" r="1"/></g></g></svg>
